X: 5
T: The Woods Of Old Limerick
R: jig
M: 6/8
L: 1/8
K: Emaj
BA | FGE FGA | BEe dBA | FGE FGA | FB,B, FGA |
FGE FGA | BEe dBA | FGE FBA | FED E2 :|
f | ged efe | dB^A Afg | afd efg | afd ebf |
gfe fed | efe dBA | FGE FBA | FED E2 :|


Tune 3893	Setting 3893

